!!!!SEGMENT: pl-sa--107-a-iii-7_figulenti--dormi-mi-jesule.krn
!!!cenid: 17xx:1322
!!!COM: Figulenti
!!!COM-rismid: pe30093197
!!!CDT: <1790->1810
!!!CNT:
!!!OTL: Dormi mi Jesule
!!!PDT:
!!!AGN: Sacred
!!!SMS-siglum: PL-SA
!!!SMS-shelfmark: 107/A III 7
!!!SMS-shelfwork: W
!!!SMS-variant:
!!!SMS-altvar:
!!!NIFC-rismid: 1001036510
!!!URL-scan: http://bc.bdsandomierz.pl/dlibra/publication/1463/edition/1431/content
!!!ONB-nifc:
!!!key:
**kern	**dynam	**kern	**dynam	**kern	**dynam	**kern	**text	**dynam	**kern	**kern	**kern
*part7	*part7	*part6	*part6	*part5	*part5	*part4	*part4	*part4	*part3	*part2	*part1
*group	*group	*group2	*group2	*group2	*group2	*group	*group	*group	*group1	*group1	*group1
*staff7	*	*staff6	*	*staff5	*	*staff4	*	*	*staff3	*staff2	*staff1
*Iempty	*	*Ivioln	*	*Ivioln	*	*Ivox	*	*	*Iempty	*Iempty	*Iempty
*I"Fondamento.	*	*I"Violino Secundo.	*	*I"Violino Primo.	*	*I"Canto Solo.	*	*	*I"Campanula Tertia.	*I"Campanula Secunda.	*I"Campanula Prima.
*I'b	*	*I'vl 2	*	*I'vl 1	*	*I'S solo	*	*	*I'campanella 3	*I'campanella 2	*I'campanella 1
*clefF4	*	*clefG2	*	*clefG2	*	*clefC1	*	*	*clefG2	*clefG2	*clefG2
*k[f#c#]	*	*k[f#c#]	*	*k[f#c#]	*	*k[f#c#]	*	*	*k[f#c#]	*k[f#c#]	*k[f#c#]
*D:	*	*D:	*	*D:	*	*D:	*	*	*D:	*D:	*D:
*M3/8	*	*M3/8	*	*M3/8	*	*M3/8	*	*	*M3/8	*M3/8	*M3/8
=1	=1	=1	=1	=1	=1	=1	=1	=1	=1	=1	=1
!	!	!	!	!	!	!LO:TX:a:t=32	!	!	!	!	!
!LO:TX:i:a:t=Tempo di Menuetto.	!	!LO:TX:i:a:t=Tempo di Menuetta.	!	!LO:TX:a:i:t=Tempo di Menuetto.	!	!LO:TX:a:i:t=Tempo di Menuetta.	!	!	!LO:TX:i:a:t=Tempo di Menuetta.	!LO:TX:i:a:t=Aria Tempo di Menuetta.	!LO:TX:i:a:t=Aria Tempo di Menuetta.
!	!	!	!	!	!	!LO:TX:a:t=P:problem:kolejność znaków: cc#, f#	!	!	!	!	!
!	!	!	!	!	!	!LO:N:vis=00	!	!	!LO:N:vis=00	!LO:N:vis=00	!LO:N:vis=00
8D\L	.	8a\L	.	8a\L	.	1.r	.	.	1.r	1.r	1.r
8F#\	.	8dd\	.	8dd\	.	.	.	.	.	.	.
8G\J	.	16ee\L	.	16ee\L	.	.	.	.	.	.	.
.	.	16ff#\JJ	.	16ff#\JJ	.	.	.	.	.	.	.
=2	=2	=2	=2	=2	=2	=2	=2	=2	=2	=2	=2
.	.	8qqdd/	.	8qqdd/	.	.	.	.	.	.	.
8A\L	.	8cc#\L	.	8cc#\L	.	.	.	.	.	.	.
8G\	.	16b\L	.	16b\L	.	.	.	.	.	.	.
.	.	16a\J	.	16a\J	.	.	.	.	.	.	.
8F#\J	.	8dd\J	.	8dd\J	.	.	.	.	.	.	.
=3	=3	=3	=3	=3	=3	=3	=3	=3	=3	=3	=3
8A\L	.	16ee\LL	.	16ee\LL	.	.	.	.	.	.	.
.	.	16dd\	.	16dd\	.	.	.	.	.	.	.
8c#\	.	16cc#\	.	16cc#\	.	.	.	.	.	.	.
.	.	16b\	.	16b\	.	.	.	.	.	.	.
8A\J	.	16a\	.	16a\	.	.	.	.	.	.	.
.	.	16gg\JJ	.	16gg\JJ	.	.	.	.	.	.	.
=4	=4	=4	=4	=4	=4	=4	=4	=4	=4	=4	=4
8d\L	.	8ff#\L	.	8ff#\L	.	.	.	.	.	.	.
8A\	.	16ee\L	.	16ee\L	.	.	.	.	.	.	.
.	.	16ff#\J	.	16ff#\J	.	.	.	.	.	.	.
8F#\J	.	8dd\J	.	8dd\J	.	.	.	.	.	.	.
=5	=5	=5	=5	=5	=5	=5	=5	=5	=5	=5	=5
!	!	!	!	!	!	!LO:N:vis=00	!	!	!	!	!
4.r	.	4.r	.	4.r	.	1.r	.	.	8dd\L	8ff#\L	8aa\L
.	.	.	.	.	.	.	.	.	8dd\	8ff#\	8aa\
.	.	.	.	.	.	.	.	.	8dd\J	8ff#\J	8aa\J
=6	=6	=6	=6	=6	=6	=6	=6	=6	=6	=6	=6
8A\L	.	16ee\LL	.	16ee\LL	.	.	.	.	4.r	4.r	4.r
.	.	16dd\	.	16dd\	.	.	.	.	.	.	.
8B\	.	16cc#\	.	16cc#\	.	.	.	.	.	.	.
.	.	16b\J	.	16b\J	.	.	.	.	.	.	.
8c#\J	.	8a\J	.	8a\J	.	.	.	.	.	.	.
=7	=7	=7	=7	=7	=7	=7	=7	=7	=7	=7	=7
4.r	.	4.r	.	4.r	.	.	.	.	8dd\L	8ff#\L	8aa\L
.	.	.	.	.	.	.	.	.	8dd\	8ff#\	8aa\
.	.	.	.	.	.	.	.	.	8dd\J	8ff#\J	8aa\J
=8	=8	=8	=8	=8	=8	=8	=8	=8	=8	=8	=8
!	!	!	!	!	!	!	!	!	!LO:N:vis=00	!LO:N:vis=00	!LO:N:vis=00
8A\L	.	16ee\LL	.	16ee\LL	.	.	.	.	1.r	1.r	1.r
.	.	16dd\	.	16dd\	.	.	.	.	.	.	.
8B\	.	16cc#\	.	16cc#\	.	.	.	.	.	.	.
.	.	16b\J	.	16b\J	.	.	.	.	.	.	.
8c#\J	.	8a\J	.	8a\J	.	.	.	.	.	.	.
=9	=9	=9	=9	=9	=9	=9	=9	=9	=9	=9	=9
!LO:TX:t=P:problem:mixed beam	!	!	!	!	!	!	!	!	!	!	!
!	!	!	!	!	!	!LO:N:vis=00	!	!	!	!	!
8D\L	.	8dd\L	.	8dd\L	.	1.r	.	.	.	.	.
8E\	.	16b\L	.	16b\L	.	.	.	.	.	.	.
.	.	16dd\	.	16dd\	.	.	.	.	.	.	.
8EE/J	.	16cc#\	.	16cc#\	.	.	.	.	.	.	.
.	.	16g#X\JJ	.	16g#X\JJ	.	.	.	.	.	.	.
=10	=10	=10	=10	=10	=10	=10	=10	=10	=10	=10	=10
8AA/L	.	8a\L	.	8a\L	.	.	.	.	.	.	.
8AA/	.	16cc#\L	.	16cc#\L	.	.	.	.	.	.	.
.	.	16a\	.	16a\	.	.	.	.	.	.	.
8AA/J	.	16cc#\	.	16cc#\	.	.	.	.	.	.	.
.	.	16ee\JJ	.	16ee\JJ	.	.	.	.	.	.	.
!	!	!	!	!LO:LB:g=original	!	!	!	!	!	!	!
=11	=11	=11	=11	=11	=11	=11	=11	=11	=11	=11	=11
!LO:TX:t=P:problem:mixed beam	!	!	!	!	!	!	!	!	!	!	!
8D\L	.	8dd\L	.	8dd\L	.	.	.	.	.	.	.
8E\	.	16b\L	.	16b\L	.	.	.	.	.	.	.
.	.	16dd\	.	16dd\	.	.	.	.	.	.	.
8EE/J	.	16cc#\	.	16cc#\	.	.	.	.	.	.	.
.	.	16g#X\JJ	.	16g#X\JJ	.	.	.	.	.	.	.
=12	=12	=12	=12	=12	=12	=12	=12	=12	=12	=12	=12
!LO:TX:t=P:problem:mixed beam	!	!	!	!	!	!	!	!	!	!	!
8AA/L	.	4a/	.	4a/	.	.	.	.	4.r	4.r	4.r
8A\	.	.	.	.	.	.	.	.	.	.	.
8AA/J	.	8A/	.	8A/	.	.	.	.	.	.	.
!LO:LB:g=original	!	!LO:LB:g=original	!	!	!	!	!	!	!	!	!
=13	=13	=13	=13	=13	=13	=13	=13	=13	=13	=13	=13
*	*	*^	*	*	*	*	*	*	*	*	*
!	!	!	!	!LO:DY:a:t=pia&colon;	!	!	!	!	!	!	!	!
!	!	!	!	!	!	!	!LO:N:vis=00	!	!	!	!	!
8D\L	.	8a/L	8f#\L	p	16dd\LL	.	1.r	.	.	8dd\L	8ff#\L	8aa\L
.	.	.	.	.	16ff#\JJ	.	.	.	.	.	.	.
8D\	.	8a/	8f#\	.	8aa\	.	.	.	.	8dd\	8ff#\	8aa\
8D\J	.	8a/J	8f#\J	.	16aa\LL	.	.	.	.	8dd\J	8ff#\J	8aa\J
.	.	.	.	.	16gg\JJ	.	.	.	.	.	.	.
=14	=14	=14	=14	=14	=14	=14	=14	=14	=14	=14	=14	=14
.	.	.	.	.	8qqgg/	.	.	.	.	.	.	.
8D\L	.	8a/L	8f#\L	.	4ff#\	.	.	.	.	8dd\L	8ff#\L	8aa\L
8D\	.	8a/	8f#\	.	.	.	.	.	.	8dd\	8ff#\	8aa\
8D\J	.	8a/J	8f#\J	.	8ee\	.	.	.	.	8dd\J	8ff#\J	8aa\J
=15	=15	=15	=15	=15	=15	=15	=15	=15	=15	=15	=15	=15
8D\L	.	8a/L	8f#\L	.	16dd\LL	.	.	.	.	8dd\L	8ff#\L	8aa\L
.	.	.	.	.	16ff#\J	.	.	.	.	.	.	.
8D\	.	8a/	8f#\	.	8aa\J	.	.	.	.	8dd\	8ff#\	8aa\
8D\J	.	8a/J	8f#\J	.	16aa\LL	.	.	.	.	8dd\J	8ff#\J	8aa\J
.	.	.	.	.	16gg\JJ	.	.	.	.	.	.	.
=16	=16	=16	=16	=16	=16	=16	=16	=16	=16	=16	=16	=16
.	.	.	.	.	8qqgg/	.	.	.	.	.	.	.
8D\L	.	8a/L	8f#\L	.	4ff#\	.	.	.	.	8dd\L	8ff#\L	8aa\L
8D\	.	8a/	8f#\	.	.	.	.	.	.	8dd\	8ff#\	8aa\
8D\J	.	8a/J	8f#\J	.	8ee\	.	.	.	.	8dd\J	8ff#\J	8aa\J
=17	=17	=17	=17	=17	=17	=17	=17	=17	=17	=17	=17	=17
!	!	!	!	!	!	!	!LO:N:vis=00	!	!	!	!	!
8D\L	.	8a/L	8f#\L	.	16ff#\LL	.	1.r	.	.	8dd\L	8ff#\L	8aa\L
.	.	.	.	.	16ee\	.	.	.	.	.	.	.
8D\	.	8a/	8f#\	.	16ff#\	.	.	.	.	8dd\	8ff#\	8aa\
.	.	.	.	.	16aa\	.	.	.	.	.	.	.
8AA\J	.	8a/J	8f#\J	.	16ee\	.	.	.	.	8dd\J	8ff#\J	8aa\J
.	.	.	.	.	16gg\JJ	.	.	.	.	.	.	.
=18	=18	=18	=18	=18	=18	=18	=18	=18	=18	=18	=18	=18
8D\L	.	8a/L	8f#\L	.	16ff#\LL	.	.	.	.	8dd\L	8ff#\L	8aa\L
.	.	.	.	.	16ee\	.	.	.	.	.	.	.
8D\	.	8a/	8f#\	.	16ff#\	.	.	.	.	8dd\	8ff#\	8aa\
.	.	.	.	.	16aa\	.	.	.	.	.	.	.
8AA\J	.	8a/J	8f#\J	.	16ee\	.	.	.	.	8dd\J	8ff#\J	8aa\J
.	.	.	.	.	16gg\JJ	.	.	.	.	.	.	.
=19	=19	=19	=19	=19	=19	=19	=19	=19	=19	=19	=19	=19
8D\L	.	8a/L	8f#\L	.	16ff#\LL	.	.	.	.	8dd\L	8ff#\L	8aa\L
.	.	.	.	.	16aa\	.	.	.	.	.	.	.
8D\	.	8a/	8f#\	.	16ff#\	.	.	.	.	8dd\	8ff#\	8aa\
.	.	.	.	.	16dd\	.	.	.	.	.	.	.
8A\J	.	8a/J	8f#\J	.	16ee\	.	.	.	.	8dd\J	8ff#\J	8aa\J
.	.	.	.	.	16cc#\JJ	.	.	.	.	.	.	.
=20	=20	=20	=20	=20	=20	=20	=20	=20	=20	=20	=20	=20
8D\L	.	8a/L	8f#\L	.	4dd\	.	.	.	.	8dd\L	8ff#\L	8aa\L
8AA\	.	8a/	8f#\	.	.	.	.	.	.	8dd\	8ff#\	8aa\
8D\J	.	8a/J	8f#\J	.	8d/	.	.	.	.	8dd\J	8ff#\J	8aa\J
*	*	*v	*v	*	*	*	*	*	*	*	*	*
!	!	!	!	!LO:LB:g=original	!	!	!	!	!LO:LB:g=original	!	!
=21	=21	=21	=21	=21	=21	=21	=21	=21	=21	=21	=21
!LO:TX:t=P:problem:mixed beam	!	!	!LO:DY:a:t=for&colon;	!	!	!	!	!	!	!	!
!	!	!	!	!	!	!LO:N:vis=00	!	!	!LO:N:vis=00	!LO:N:vis=00	!LO:N:vis=00
8D\L	.	8dd\L	f	8dd\L	.	1.r	.	.	1.r	1.r	1.r
8E\	.	16b\L	.	16b\L	.	.	.	.	.	.	.
.	.	16dd\	.	16dd\	.	.	.	.	.	.	.
8EE/J	.	16cc#\	.	16cc#\	.	.	.	.	.	.	.
.	.	16g#X\JJ	.	16g#X\JJ	.	.	.	.	.	.	.
=22	=22	=22	=22	=22	=22	=22	=22	=22	=22	=22	=22
8AA/L	.	8a\L	.	8a\L	.	.	.	.	.	.	.
8AA/	.	16cc#\L	.	16cc#\L	.	.	.	.	.	.	.
.	.	16a\	.	16a\	.	.	.	.	.	.	.
8AA/J	.	16cc#\	.	16cc#\	.	.	.	.	.	.	.
.	.	16ee\JJ	.	16ee\JJ	.	.	.	.	.	.	.
=23	=23	=23	=23	=23	=23	=23	=23	=23	=23	=23	=23
!LO:TX:t=P:problem:mixed beam	!	!	!	!	!	!	!	!	!	!	!
8D\L	.	8dd\L	.	8dd\L	.	.	.	.	.	.	.
8E\	.	16b\L	.	16b\L	.	.	.	.	.	.	.
.	.	16dd\	.	16dd\	.	.	.	.	.	.	.
8EE/J	.	16cc#\	.	16cc#\	.	.	.	.	.	.	.
.	.	16g#X\JJ	.	16g#X\JJ	.	.	.	.	.	.	.
=24	=24	=24	=24	=24	=24	=24	=24	=24	=24	=24	=24
!LO:TX:t=P:problem:mixed beam	!	!	!	!	!	!	!	!	!	!	!
8AA/L	.	4a/	.	4a/	.	.	.	.	.	.	.
8A\	.	.	.	.	.	.	.	.	.	.	.
8AA/J	.	8A/	.	8A/	.	.	.	.	.	.	.
=25	=25	=25	=25	=25	=25	=25	=25	=25	=25	=25	=25
*	*	*^	*	*	*	*	*	*	*	*	*
!	!	!	!	!LO:DY:a:t=pia&colon;	!	!	!	!	!	!	!	!
!	!	!	!	!	!	!	!LO:N:vis=00	!	!	!	!	!
8D\L	.	8a/L	8f#\L	p	16dd\LL	.	1.r	.	.	8dd\L	8ff#\L	8aa\L
.	.	.	.	.	16ff#\J	.	.	.	.	.	.	.
8D\	.	8a/	8f#\	.	8aa\J	.	.	.	.	8dd\	8ff#\	8aa\
8D\J	.	8a/J	8f#\J	.	16aa\LL	.	.	.	.	8dd\J	8ff#\J	8aa\J
.	.	.	.	.	16gg\JJ	.	.	.	.	.	.	.
!	!	!LO:LB:g=original	!	!	!	!	!	!	!	!	!LO:LB:g=original	!
=26	=26	=26	=26	=26	=26	=26	=26	=26	=26	=26	=26	=26
.	.	.	.	.	8qqgg/	.	.	.	.	.	.	.
8D\L	.	8a/L	8f#\L	.	4ff#\	.	.	.	.	8dd\L	8ff#\L	8aa\L
8D\	.	8a/	8f#\	.	.	.	.	.	.	8dd\	8ff#\	8aa\
8D\J	.	8a/J	8f#\J	.	8ee\	.	.	.	.	8dd\J	8ff#\J	8aa\J
!	!	!	!	!	!	!	!	!	!	!	!	!LO:LB:g=original
=27	=27	=27	=27	=27	=27	=27	=27	=27	=27	=27	=27	=27
8D\L	.	8a/L	8f#\L	.	16dd\LL	.	.	.	.	8dd\L	8ff#\L	8aa\L
.	.	.	.	.	16ff#\J	.	.	.	.	.	.	.
8D\	.	8a/	8f#\	.	8aa\J	.	.	.	.	8dd\	8ff#\	8aa\
8D\J	.	8a/J	8f#\J	.	16aa\LL	.	.	.	.	8dd\J	8ff#\J	8aa\J
.	.	.	.	.	16gg\JJ	.	.	.	.	.	.	.
!LO:LB:g=original	!	!	!	!	!	!	!	!	!	!	!	!
=28	=28	=28	=28	=28	=28	=28	=28	=28	=28	=28	=28	=28
.	.	.	.	.	8qqgg/	.	.	.	.	.	.	.
8D\L	.	8a/L	8f#\L	.	4ff#\	.	.	.	.	8dd\L	8ff#\L	8aa\L
8D\	.	8a/	8f#\	.	.	.	.	.	.	8dd\	8ff#\	8aa\
8D\J	.	8a/J	8f#\J	.	8ee\	.	.	.	.	8dd\J	8ff#\J	8aa\J
=29	=29	=29	=29	=29	=29	=29	=29	=29	=29	=29	=29	=29
!	!	!	!	!	!	!	!LO:N:vis=00	!	!	!	!	!
8D\L	.	8a/L	8f#\L	.	16ff#\LL	.	1.r	.	.	8dd\L	8ff#\L	8aa\L
.	.	.	.	.	16ee\	.	.	.	.	.	.	.
8D\	.	8a/	8f#\	.	16ff#\	.	.	.	.	8dd\	8ff#\	8aa\
.	.	.	.	.	16aa\	.	.	.	.	.	.	.
8AA\J	.	8a/J	8f#\J	.	16ee\	.	.	.	.	8dd\J	8ff#\J	8aa\J
.	.	.	.	.	16gg\JJ	.	.	.	.	.	.	.
=30	=30	=30	=30	=30	=30	=30	=30	=30	=30	=30	=30	=30
8D\L	.	8a/L	8f#\L	.	16ff#\LL	.	.	.	.	8dd\L	8ff#\L	8aa\L
.	.	.	.	.	16ee\	.	.	.	.	.	.	.
8D\	.	8a/	8f#\	.	16ff#\	.	.	.	.	8dd\	8ff#\	8aa\
.	.	.	.	.	16aa\	.	.	.	.	.	.	.
8AA\J	.	8a/J	8f#\J	.	16ee\	.	.	.	.	8dd\J	8ff#\J	8aa\J
.	.	.	.	.	16gg\JJ	.	.	.	.	.	.	.
=31	=31	=31	=31	=31	=31	=31	=31	=31	=31	=31	=31	=31
8D\L	.	8a/L	8f#\L	.	16ff#\LL	.	.	.	.	8dd\L	8ff#\L	8aa\L
.	.	.	.	.	16aa\	.	.	.	.	.	.	.
8D\	.	8a/	8f#\	.	16ff#\	.	.	.	.	8dd\	8ff#\	8aa\
.	.	.	.	.	16dd\	.	.	.	.	.	.	.
8A\J	.	8a/J	8f#\J	.	16ee\	.	.	.	.	8dd\J	8ff#\J	8aa\J
.	.	.	.	.	16cc#\JJ	.	.	.	.	.	.	.
!	!	!	!	!	!LO:LB:g=original	!	!	!	!	!	!	!
=32	=32	=32	=32	=32	=32	=32	=32	=32	=32	=32	=32	=32
8D\L	.	8a/L	8f#\L	.	4dd\	.	.	.	.	8dd\L	8ff#\L	8aa\L
8AA\	.	8a/	8f#\	.	.	.	.	.	.	8dd\	8ff#\	8aa\
8D\J	.	8a/J	8f#\J	.	8d/	.	.	.	.	8dd\J	8ff#\J	8aa\J
*	*	*v	*v	*	*	*	*	*	*	*	*	*
=33	=33	=33	=33	=33	=33	=33	=33	=33	=33	=33	=33
!LO:TX:a:t=to g	!LO:DY:a:t=pia&colon;	!	!LO:DY:a:t=pianiſ&colon;	!	!LO:DY:a:t=pia&colon;	!	!	!	!LO:N:vis=00	!LO:N:vis=00	!LO:N:vis=00
8D\L	p	8f#/L	pp	8a\L	p	8a\	Dor-	.	1.r	1.r	1.r
8F#\	.	8a/	.	8dd\	.	8dd\	-mi	.	.	.	.
8G\J	.	8b/J	.	16ee\L	.	16ee\LL	mi	.	.	.	.
.	.	.	.	16ff#\JJ	.	16ff#\JJ	.	.	.	.	.
=34	=34	=34	=34	=34	=34	=34	=34	=34	=34	=34	=34
.	.	.	.	8qqdd	.	8qqdd/	.	.	.	.	.
8A\L	.	8e/L	.	8cc#\L	.	8cc#\	Je-	.	.	.	.
8G\	.	8e/	.	16b\L	.	16b\LL	-su-	.	.	.	.
.	.	.	.	16a\J	.	16a\JJ	.	.	.	.	.
8F#\J	.	8f#/J	.	8dd\J	.	8dd\	-le	.	.	.	.
=35	=35	=35	=35	=35	=35	=35	=35	=35	=35	=35	=35
8A\L	.	8cc#\L	.	16ee\LL	.	16ee\LL	qui-	.	.	.	.
.	.	.	.	16dd\	.	16dd\JJ	.	.	.	.	.
8c#\	.	8cc#\	.	16cc#\	.	16cc#\LL	-eſ-	.	.	.	.
.	.	.	.	16b\	.	16b\JJ	.	.	.	.	.
8A\J	.	8cc#\J	.	16a\	.	16a\	-ce	.	.	.	.
.	.	.	.	16gg\JJ	.	16gg\	pu-	.	.	.	.
=36	=36	=36	=36	=36	=36	=36	=36	=36	=36	=36	=36
8d\L	.	8dd\L	.	8ff#\L	.	8ff#\	-el-	.	.	.	.
8A\	.	8cc#\	.	16ee\L	.	16ee\LL	-lu-	.	.	.	.
.	.	.	.	16ff#\J	.	16ff#\JJ	.	.	.	.	.
8F#\J	.	8dd\J	.	8dd\J	.	8dd\	-le	.	.	.	.
=37	=37	=37	=37	=37	=37	=37	=37	=37	=37	=37	=37
!	!	!	!	!	!	!LO:TX:a:t=1	!	!	!	!	!
4.r	.	4.r	.	4.r	.	4.r	.	.	8dd\L	8ff#\L	8aa\L
.	.	.	.	.	.	.	.	.	8dd\	8ff#\	8aa\
.	.	.	.	.	.	.	.	.	8dd\J	8ff#\J	8aa\J
=38	=38	=38	=38	=38	=38	=38	=38	=38	=38	=38	=38
8A\L	.	8cc#\L	.	16ee\LL	.	16ee\LL	Dor-	.	4.r	4.r	4.r
.	.	.	.	16dd\	.	16dd\	.	.	.	.	.
8B\	.	8dd\	.	16cc#\	.	16cc#\	.	.	.	.	.
.	.	.	.	16b\J	.	16b\JJ	.	.	.	.	.
8c#\J	.	8ee\J	.	8a\J	.	8a\	-mi	.	.	.	.
!	!	!	!	!	!	!LO:LB:g=original	!	!	!	!	!
=39	=39	=39	=39	=39	=39	=39	=39	=39	=39	=39	=39
!	!	!	!	!	!	!LO:TX:a:t=1	!	!	!	!	!
4.r	.	4.r	.	4.r	.	4.r	.	.	8dd\L	8ff#\L	8aa\L
.	.	.	.	.	.	.	.	.	8dd\	8ff#\	8aa\
.	.	.	.	.	.	.	.	.	8dd\J	8ff#\J	8aa\J
!	!	!	!	!	!	!	!	!	!LO:LB:g=original	!	!
=40	=40	=40	=40	=40	=40	=40	=40	=40	=40	=40	=40
!	!	!	!	!	!	!	!	!	!LO:N:vis=00	!LO:N:vis=00	!LO:N:vis=00
8A\L	.	8cc#\L	.	16ee\LL	.	16ee\LL	Dor-	.	1.r	1.r	1.r
.	.	.	.	16dd\	.	16dd\	.	.	.	.	.
8B\	.	8dd\	.	16cc#\	.	16cc#\	.	.	.	.	.
.	.	.	.	16b\J	.	16b\JJ	.	.	.	.	.
8c#\J	.	8ee\J	.	8a\J	.	8a\	-mi	.	.	.	.
!	!	!LO:LB:g=original	!	!	!	!	!	!	!	!	!
=41	=41	=41	=41	=41	=41	=41	=41	=41	=41	=41	=41
!LO:TX:t=P:problem:mixed beam	!	!	!	!	!	!	!	!	!	!	!
8D\L	.	8f#/L	.	8dd\L	.	8dd\	Dor-	.	.	.	.
8E\	.	8g#X/	.	16b\L	.	16b\LL	-mi	.	.	.	.
.	.	.	.	16dd\	.	16dd\JJ	.	.	.	.	.
8EE/J	.	8g#/J	.	16cc#\	.	16cc#\LL	te-	.	.	.	.
.	.	.	.	16g#X\JJ	.	16g#X\JJ	.	.	.	.	.
!LO:LB:g=original	!	!	!	!	!	!	!	!	!	!	!
=42	=42	=42	=42	=42	=42	=42	=42	=42	=42	=42	=42
8AA/L	.	8a\L	.	8a\L	.	8a\L	-nel-	.	.	.	.
8AA/	.	8cc#\	.	16cc#\L	.	16cc#\L	.	.	.	.	.
.	.	.	.	16a\	.	16a\	.	.	.	.	.
8AA/J	.	8cc#\J	.	16cc#\	.	16cc#\	.	.	.	.	.
.	.	.	.	16ee\JJ	.	16ee\JJ	.	.	.	.	.
!	!	!	!	!LO:LB:g=original	!	!	!	!	!	!	!
=43	=43	=43	=43	=43	=43	=43	=43	=43	=43	=43	=43
!LO:TX:t=P:problem:mixed beam	!	!	!	!	!	!	!	!	!	!	!
8D\L	.	8f#/L	.	8dd\L	.	8dd\L	.	.	.	.	.
8E\	.	8g#X/	.	16b\L	.	16b\L	.	.	.	.	.
.	.	.	.	16dd\	.	16dd\JJ	.	.	.	.	.
8EE/J	.	8g#/J	.	16cc#\	.	16cc#\LL	-lu-	.	.	.	.
.	.	.	.	16g#X\JJ	.	16g#X\JJ	.	.	.	.	.
=44	=44	=44	=44	=44	=44	=44	=44	=44	=44	=44	=44
!	!	!	!	!	!	!	!	!	!LO:N:vis=00	!LO:N:vis=00	!LO:N:vis=00
8AA/L	.	8a\L	.	8a\L	.	4.a\	-le	.	1.r	1.r	1.r
8AA/	.	16cc#\L	.	16cc#\L	.	.	.	.	.	.	.
.	.	16ee\J	.	16ee\J	.	.	.	.	.	.	.
8AA/J	.	8aa\J	.	8aa\J	.	.	.	.	.	.	.
=45	=45	=45	=45	=45	=45	=45	=45	=45	=45	=45	=45
8A\L	.	16a\LL	.	16cc#\LL	.	16cc#\LL	Dor-	.	.	.	.
.	.	16b\J	.	16dd\J	.	16dd\JJ	.	.	.	.	.
8A\	.	8cc#\	.	8ee\	.	8ee\	-mi	.	.	.	.
8A\J	.	8cc#\J	.	8ee\J	.	8ee\	mi	.	.	.	.
=46	=46	=46	=46	=46	=46	=46	=46	=46	=46	=46	=46
8A\L	.	16dd\LL	.	16ff#\LL	.	16ff#\LL	Je-	.	.	.	.
.	.	16b\	.	16gg#X\	.	16gg#X\JJ	.	.	.	.	.
8A\	.	16cc#\	.	16aa\	.	16aa\LL	-su-	.	.	.	.
.	.	16b\J	.	16gg#\J	.	16gg#X\JJ	.	.	.	.	.
8A\J	.	8cc#\J	.	8aa\J	.	8aa\	-le	.	.	.	.
!	!	!	!	!	!	!LO:LB:g=original	!	!	!	!	!
=47	=47	=47	=47	=47	=47	=47	=47	=47	=47	=47	=47
8A\L	.	16a\LL	.	16cc#\LL	.	16cc#\LL	qui-	.	.	.	.
.	.	16b\J	.	16dd\J	.	16dd\JJ	.	.	.	.	.
8A\	.	8cc#\	.	8ee\	.	8ee\	-eſ-	.	.	.	.
8A\J	.	8cc#\J	.	8ee\J	.	16ee\	-ce	.	.	.	.
.	.	.	.	.	.	16ee\	pu-	.	.	.	.
=48	=48	=48	=48	=48	=48	=48	=48	=48	=48	=48	=48
!	!	!	!	!	!	!	!	!	!LO:N:vis=00	!LO:N:vis=00	!LO:N:vis=00
8A\L	.	16dd\LL	.	16ff#\LL	.	16ff#\LL	-el-	.	1.r	1.r	1.r
.	.	16b\	.	16gg#X\	.	16gg#X\JJ	.	.	.	.	.
8A\	.	16cc#\	.	16aa\	.	16aa\LL	-lu-	.	.	.	.
.	.	16b\J	.	16gg#\J	.	16gg#X\JJ	.	.	.	.	.
8A\J	.	8cc#\J	.	8aa\J	.	8aa\	-le	.	.	.	.
=49	=49	=49	=49	=49	=49	=49	=49	=49	=49	=49	=49
8d\L	.	8a\L	.	8ff#\L	.	8ff#\	Dor-	.	.	.	.
8A\J	.	8cc#\J	.	8ee\J	.	8ee\	-mi	.	.	.	.
!	!	!	!LO:DY:a:t=for&colon;	!	!LO:DY:a:t=for&colon;	!	!	!	!	!	!
8r	.	8aa\	f	8aa\	f	8r	.	.	.	.	.
=50	=50	=50	=50	=50	=50	=50	=50	=50	=50	=50	=50
!	!	!	!LO:DY:a:t=pi&colon;	!	!LO:DY:a:t=pi&colon;	!	!	!	!	!	!
8E\L	.	8b\L	p	8dd\L	p	8dd\	Dor-	.	.	.	.
8A\J	.	8a\J	.	8cc#\J	.	8cc#\	-mi	.	.	.	.
!	!	!	!LO:DY:a:t=for&colon;	!	!LO:DY:a:t=for&colon;	!	!	!	!	!	!
8r	.	8aa\	f	8aa\	f	8r	.	.	.	.	.
=51	=51	=51	=51	=51	=51	=51	=51	=51	=51	=51	=51
!	!	!	!LO:DY:a:t=pi&colon;	!	!LO:DY:a:t=pi&colon;	!	!	!	!	!	!
8d\L	.	8a\L	p	8ff#\L	p	8ff#\	Dor-	.	.	.	.
8A\J	.	8cc#\J	.	8ee\J	.	8ee\	-mi	.	.	.	.
!	!	!	!LO:DY:a:t=for&colon;	!	!LO:DY:a:t=for&colon;	!	!	!	!	!	!
8r	.	8aa\	f	8aa\	f	8r	.	.	.	.	.
!	!	!LO:LB:g=original	!	!	!	!	!	!	!	!	!
=52	=52	=52	=52	=52	=52	=52	=52	=52	=52	=52	=52
!	!	!	!LO:DY:a:t=pi&colon;	!	!LO:DY:a:t=pi&colon;	!	!	!	!LO:N:vis=00	!LO:N:vis=00	!LO:N:vis=00
8E\L	.	8b\L	p	8dd\L	p	8dd\	Dor-	.	1.r	1.r	1.r
8A\J	.	8a\J	.	8cc#\J	.	8cc#\	-mi	.	.	.	.
!	!	!	!	!	!LO:DY:a:t=for	!	!	!	!	!	!
8r	.	8aa\	.	8aa\	f	8r	.	.	.	.	.
!	!	!	!	!LO:LB:g=original	!	!	!	!	!	!	!
=53	=53	=53	=53	=53	=53	=53	=53	=53	=53	=53	=53
*	*	*	*	*	*	*Xtuplet	*	*	*	*	*
8A\L	.	8e/L	.	8cc#\L	.	24cc#\LL	te-	.	.	.	.
.	.	.	.	.	.	24b\	.	.	.	.	.
.	.	.	.	.	.	24a\JJ	.	.	.	.	.
8e\	.	8g#X/	.	8b\	.	8.b\L	-nel-	.	.	.	.
8E\J	.	8b/J	.	8dd\J	.	.	.	.	.	.	.
.	.	.	.	.	.	16dd\Jk	.	.	.	.	.
=54	=54	=54	=54	=54	=54	=54	=54	=54	=54	=54	=54
8A\L	.	8e/L	.	8cc#\L	.	24cc#\LL	.	.	.	.	.
.	.	.	.	.	.	24b\	.	.	.	.	.
.	.	.	.	.	.	24a\JJ	.	.	.	.	.
8e\	.	8g#X/	.	8b\	.	8.b\L	.	.	.	.	.
8E\J	.	8b/J	.	8dd\J	.	.	.	.	.	.	.
.	.	.	.	.	.	16dd\Jk	.	.	.	.	.
!LO:LB:g=original	!	!	!	!	!	!LO:LB:g=original	!	!	!	!	!
=55	=55	=55	=55	=55	=55	=55	=55	=55	=55	=55	=55
*	*	*	*	*Xtuplet	*	*	*	*	*	*	*
!LO:TX:t=P:problem:mixed beam	!	!	!	!	!	!	!	!	!	!	!
8A\L	.	8a/	.	24cc#\LL	.	24cc#\LL	.	.	.	.	.
.	.	.	.	24b\	.	24b\	.	.	.	.	.
.	.	.	.	24a\JJ	.	24a\JJ	.	.	.	.	.
8E\	.	4g#X/	.	4bT>\	.	8.b\	.	.	.	.	.
8AA/J	.	.	.	.	.	.	.	.	.	.	.
.	.	.	.	.	.	16b\	-lu-	.	.	.	.
=56	=56	=56	=56	=56	=56	=56	=56	=56	=56	=56	=56
!	!LO:DY:a:t=for&colon;	!	!LO:DY:a:t=for&colon;	!	!LO:DY:a:t=for&colon;	!	!	!	!LO:N:vis=00	!LO:N:vis=00	!
8AA/L	f	8c#/L	f	16a\LL	f	4a\	-le.	.	1.r	1.r	8aa\L
.	.	.	.	16cc#\J	.	.	.	.	.	.	.
8AA/	.	8c#/	.	8ee\J	.	.	.	.	.	.	8aa\
8AA/J	.	8c#/J	.	16ee\LL	.	8r	.	.	.	.	8aa\J
.	.	.	.	16dd\JJ	.	.	.	.	.	.	.
=57	=57	=57	=57	=57	=57	=57	=57	=57	=57	=57	=57
!	!	!	!	!	!	!LO:TX:a:t=7	!	!	!	!	!
.	.	.	.	8qqdd/	.	.	.	.	.	.	.
!	!	!	!	!	!	!LO:N:vis=00	!	!	!	!	!
8AA/L	.	8c#/L	.	4cc#\	.	1.r	.	.	.	.	8aa\L
8AA/	.	8c#/	.	.	.	.	.	.	.	.	8aa\
8AA/J	.	8c#/J	.	8b\	.	.	.	.	.	.	8aa\J
=58	=58	=58	=58	=58	=58	=58	=58	=58	=58	=58	=58
8AA/L	.	8c#/L	.	16a\LL	.	.	.	.	.	.	8aa\L
.	.	.	.	16cc#\J	.	.	.	.	.	.	.
8AA/	.	8c#/	.	8ee\J	.	.	.	.	.	.	8aa\
8AA/J	.	8c#/J	.	16ee\LL	.	.	.	.	.	.	8aa\J
.	.	.	.	16dd\JJ	.	.	.	.	.	.	.
=59	=59	=59	=59	=59	=59	=59	=59	=59	=59	=59	=59
.	.	.	.	8qqdd/	.	.	.	.	.	.	.
8AA/L	.	8c#/L	.	4cc#\	.	.	.	.	.	.	8aa\L
8AA/	.	8c#/	.	.	.	.	.	.	.	.	8aa\
8AA/J	.	8c#/J	.	8b\	.	.	.	.	.	.	8aa\J
!	!	!	!	!	!	!	!	!	!	!	!LO:LB:g=original
=60	=60	=60	=60	=60	=60	=60	=60	=60	=60	=60	=60
!	!	!	!	!	!	!	!	!	!LO:N:vis=00	!LO:N:vis=00	!
8AA/L	.	8c#/L	.	16cc#\LL	.	.	.	.	1.r	1.r	8aa\L
.	.	.	.	16b\	.	.	.	.	.	.	.
8AA/	.	8c#/	.	16cc#\	.	.	.	.	.	.	8aa\
.	.	.	.	16ee\	.	.	.	.	.	.	.
8AA/J	.	8c#/J	.	16b\	.	.	.	.	.	.	8aa\J
.	.	.	.	16dd\JJ	.	.	.	.	.	.	.
=61	=61	=61	=61	=61	=61	=61	=61	=61	=61	=61	=61
!	!	!	!	!	!	!LO:N:vis=0	!	!	!	!	!
8AA/L	.	8c#/L	.	16cc#\LL	.	2.r	.	.	.	.	8aa\L
.	.	.	.	16b\	.	.	.	.	.	.	.
8AA/	.	8c#/	.	16cc#\	.	.	.	.	.	.	8aa\
.	.	.	.	16ee\	.	.	.	.	.	.	.
8AA/J	.	8c#/J	.	16b\	.	.	.	.	.	.	8aa\J
.	.	.	.	16dd\JJ	.	.	.	.	.	.	.
=62	=62	=62	=62	=62	=62	=62	=62	=62	=62	=62	=62
!LO:TX:t=P:problem:mixed beam	!	!	!	!	!	!	!	!	!	!	!
8AA/L	.	8c#/L	.	16cc#\LL	.	.	.	.	.	.	8aa\L
.	.	.	.	16ee\	.	.	.	.	.	.	.
8E\	.	8e/	.	16cc#\	.	.	.	.	.	.	8aa\
.	.	.	.	16a\	.	.	.	.	.	.	.
8EE/J	.	8g#X/J	.	16b\	.	.	.	.	.	.	8aa\J
.	.	.	.	16g#X\JJ	.	.	.	.	.	.	.
=63	=63	=63	=63	=63	=63	=63	=63	=63	=63	=63	=63
8AA/L	.	8a/L	.	8a/L	.	4.r	.	.	.	.	8aa\L
8AA/	.	8c#/	.	8A/	.	.	.	.	.	.	8aa\
8AA/J	.	8c#/J	.	8A/J	.	.	.	.	.	.	8aa\J
!	!	!LO:LB:g=original	!	!LO:LB:g=original	!	!	!	!	!	!	!
=64	=64	=64	=64	=64	=64	=64	=64	=64	=64	=64	=64
!	!LO:DY:a:t=pi	!	!LO:DY:a:t=pi&colon;	!	!LO:DY:a:t=pia&colon;	!	!	!	!LO:N:vis=00	!LO:N:vis=00	!LO:N:vis=00
8D\L	p	8f#/L	p	8dd\L	p	8dd\	Dor-	.	1.r	1.r	1.r
!LO:TX:a:t=c	!	!	!	!	!	!	!	!	!	!	!
8D\	.	8a/	.	8dd\	.	8dd\	-mi	.	.	.	.
!LO:TX:a:t=to	!	!	!	!	!	!	!	!	!	!	!
8D\J	.	8f#/J	.	8dd\J	.	8dd\	mi	.	.	.	.
=65	=65	=65	=65	=65	=65	=65	=65	=65	=65	=65	=65
8G\L	.	8d/L	.	8b\L	.	8.b\	Je-	.	.	.	.
8G\	.	8d/	.	8b\	.	.	.	.	.	.	.
.	.	.	.	.	.	16b\	-su-	.	.	.	.
8G\J	.	8d/J	.	8b\J	.	8b\	-le	.	.	.	.
=66	=66	=66	=66	=66	=66	=66	=66	=66	=66	=66	=66
8G\L	.	8b\L	.	8ee\L	.	8ee\	qui-	.	.	.	.
8G\	.	8b\	.	8ee\	.	16gg\LL	-eſ-	.	.	.	.
.	.	.	.	.	.	16ee\JJ	.	.	.	.	.
8G\J	.	8b\J	.	8ee\J	.	16ee\	-ce	.	.	.	.
.	.	.	.	.	.	16dd\	pu-	.	.	.	.
=67	=67	=67	=67	=67	=67	=67	=67	=67	=67	=67	=67
8A\L	.	8e/L	.	8cc#\L	.	8cc#\	-el-	.	.	.	.
8A\	.	8e/	.	8cc#\	.	8b\	-lu-	.	.	.	.
8A\J	.	8e/J	.	8cc#\J	.	8a\	-le	.	.	.	.
!LO:LB:g=original	!	!	!	!	!	!	!	!	!	!	!
=68	=68	=68	=68	=68	=68	=68	=68	=68	=68	=68	=68
!	!	!	!	!	!	!	!	!	!LO:N:vis=00	!LO:N:vis=00	!LO:N:vis=00
8A\L	.	16cc#\LL	.	16ee\LL	.	8ee\	Dor-	.	1.r	1.r	1.r
.	.	16a\	.	16a\	.	.	.	.	.	.	.
8A\	.	16cc#\	.	16ee\	.	8ee\	-mi	.	.	.	.
.	.	16a\	.	16a\	.	.	.	.	.	.	.
8A\J	.	16dd\	.	16ff#\	.	8ff#\	te-	.	.	.	.
.	.	16a\JJ	.	16a\JJ	.	.	.	.	.	.	.
!	!	!	!	!	!	!LO:LB:g=original	!	!	!	!	!
=69	=69	=69	=69	=69	=69	=69	=69	=69	=69	=69	=69
8A\L	.	16ee\LL	.	16gg\LL	.	8gg\	-nel-	.	.	.	.
.	.	16a\	.	16a\	.	.	.	.	.	.	.
8A\	.	16ee\	.	16gg\	.	8gg\	-lu-	.	.	.	.
.	.	16a\	.	16a\	.	.	.	.	.	.	.
8A\J	.	16dd\	.	16ff#\	.	8ff#\	-le	.	.	.	.
.	.	16a\JJ	.	16a\JJ	.	.	.	.	.	.	.
=70	=70	=70	=70	=70	=70	=70	=70	=70	=70	=70	=70
8A\L	.	16cc#\LL	.	16ee\LL	.	8ee\	Dor-	.	.	.	.
.	.	16a\	.	16a\	.	.	.	.	.	.	.
8A\	.	16cc#\	.	16ee\	.	8ee\	-mi	.	.	.	.
.	.	16a\	.	16a\	.	.	.	.	.	.	.
8A\J	.	16dd\	.	16ff#\	.	8ff#\	pu-	.	.	.	.
.	.	16a\JJ	.	16a\JJ	.	.	.	.	.	.	.
=71	=71	=71	=71	=71	=71	=71	=71	=71	=71	=71	=71
!	!	!	!	!	!	!	!LO:SIC:s=-el-	!	!	!	!
8A\L	.	16ee\LL	.	16gg\LL	.	8gg\	-l-	.	.	.	.
.	.	16a\	.	16a\	.	.	.	.	.	.	.
8A\	.	16ee\	.	16gg\	.	8gg\	-lu-	.	.	.	.
.	.	16a\	.	16a\	.	.	.	.	.	.	.
8D\J	.	16dd\	.	16ff#\	.	8ff#\	-le	.	.	.	.
.	.	16a\JJ	.	16a\JJ	.	.	.	.	.	.	.
=72	=72	=72	=72	=72	=72	=72	=72	=72	=72	=72	=72
!LO:TX:a:t=2	!	!	!	!	!	!LO:TX:a:t=2	!	!	!	!	!
!LO:N:vis=0	!	!LO:N:vis=0	!	!LO:N:vis=0	!	!LO:N:vis=0	!	!	!	!	!
2.r	.	2.r	.	2.r	.	2.r	.	.	8dd\L	8ff#\L	8aa\L
.	.	.	.	.	.	.	.	.	8dd\	8ff#\	8aa\
.	.	.	.	.	.	.	.	.	8dd\J	8ff#\J	8aa\J
!	!	!	!	!	!	!	!	!	!	!LO:LB:g=original	!
=73	=73	=73	=73	=73	=73	=73	=73	=73	=73	=73	=73
.	.	.	.	.	.	.	.	.	8dd\L	8ff#\L	8aa\L
.	.	.	.	.	.	.	.	.	8dd\	8ff#\	8aa\
.	.	.	.	.	.	.	.	.	8dd\J	8ff#\J	8aa\J
=74	=74	=74	=74	=74	=74	=74	=74	=74	=74	=74	=74
!	!	!	!	!	!	!	!	!	!LO:N:vis=00	!LO:N:vis=00	!LO:N:vis=00
8d\L	.	8a/L	.	8ff#\L	.	8ff#\L	Dor-	.	1.r	1.r	1.r
8c#\	.	8a/	.	8ee\	.	8ee\J	.	.	.	.	.
8B\J	.	8f#/J	.	8dd\J	.	8dd\	-mi	.	.	.	.
=75	=75	=75	=75	=75	=75	=75	=75	=75	=75	=75	=75
.	.	.	.	.	.	8qqdd	.	.	.	.	.
8A\L	.	8e/L	.	8cc#\L	.	4cc#\	Dor-	.	.	.	.
8G\	.	8e/	.	8cc#\	.	.	.	.	.	.	.
8F#\J	.	8f#/J	.	8dd\J	.	8dd\	-mi	.	.	.	.
=76	=76	=76	=76	=76	=76	=76	=76	=76	=76	=76	=76
!LO:TX:t=P:problem:mixed beam	!	!	!	!	!	!	!	!	!	!	!
8G\L	.	8g/L	.	16ee\LL	.	16ee\LL	mi	.	.	.	.
.	.	.	.	16gg\	.	16gg\JJ	.	.	.	.	.
*	*	*Xtuplet	*	*	*	*	*	*	*	*	*
8A\	.	20b/L	.	16ff#\	.	16ff#\LL	Je-	.	.	.	.
.	.	20a/	.	.	.	.	.	.	.	.	.
.	.	.	.	16ee\	.	16ee\JJ	.	.	.	.	.
.	.	20g/	.	.	.	.	.	.	.	.	.
8AA/J	.	.	.	16dd\	.	16dd\LL	-ſu-	.	.	.	.
.	.	20f#/	.	.	.	.	.	.	.	.	.
.	.	.	.	16cc#\JJ	.	16cc#\JJ	.	.	.	.	.
.	.	20e/JJ	.	.	.	.	.	.	.	.	.
!	!	!LO:LB:g=original	!	!	!	!	!	!	!	!	!
=77	=77	=77	=77	=77	=77	=77	=77	=77	=77	=77	=77
8D\L	.	8f#/L	.	8dd\L	.	4.dd\	-le	.	.	.	.
8D\	.	8f#/	.	8ddd\	.	.	.	.	.	.	.
8D\J	.	8f#/J	.	8dd\J	.	.	.	.	.	.	.
!	!	!	!	!	!	!LO:LB:g=original	!	!	!	!	!
=78	=78	=78	=78	=78	=78	=78	=78	=78	=78	=78	=78
!	!	!	!	!	!	!	!	!	!LO:N:vis=00	!LO:N:vis=00	!LO:N:vis=00
8A\L	.	16cc#\LL	.	16ee\LL	.	8ee\	Dor-	.	1.r	1.r	1.r
.	.	16a\	.	16a\	.	.	.	.	.	.	.
8A\	.	16cc#\	.	16ee\	.	8ee\	-mi	.	.	.	.
.	.	16a\	.	16a\	.	.	.	.	.	.	.
8A\J	.	16dd\	.	16ff#\	.	8ff#\	te-	.	.	.	.
.	.	16a\JJ	.	16a\JJ	.	.	.	.	.	.	.
!	!	!	!	!LO:LB:g=original	!	!	!	!	!	!	!
=79	=79	=79	=79	=79	=79	=79	=79	=79	=79	=79	=79
8A\L	.	16ee\LL	.	16gg\LL	.	8gg\	-nel-	.	.	.	.
.	.	16a\	.	16a\	.	.	.	.	.	.	.
8A\	.	16ee\	.	16gg\	.	8gg\	-lu-	.	.	.	.
.	.	16a\	.	16a\	.	.	.	.	.	.	.
8A\J	.	16dd\	.	16ff#\	.	8ff#\	-le	.	.	.	.
.	.	16a\JJ	.	16a\JJ	.	.	.	.	.	.	.
=80	=80	=80	=80	=80	=80	=80	=80	=80	=80	=80	=80
8A\L	.	16cc#\LL	.	16ee\LL	.	8ee\	Dor-	.	.	.	.
.	.	16a\	.	16a\	.	.	.	.	.	.	.
8A\	.	16cc#\	.	16ee\	.	8ee\	-mi	.	.	.	.
.	.	16a\	.	16a\	.	.	.	.	.	.	.
8A\J	.	16dd\	.	16ff#\	.	8ff#\	pu-	.	.	.	.
.	.	16a\JJ	.	16a\JJ	.	.	.	.	.	.	.
=81	=81	=81	=81	=81	=81	=81	=81	=81	=81	=81	=81
8A\L	.	16ee\LL	.	16gg\LL	.	8gg\	-el-	.	.	.	.
.	.	16a\	.	16a\	.	.	.	.	.	.	.
8A\	.	16ee\	.	16gg\	.	8gg\	-lu-	.	.	.	.
.	.	16a\	.	16a\	.	.	.	.	.	.	.
8D\J	.	16dd\	.	16ff#\	.	8ff#\	-le	.	.	.	.
.	.	16a\JJ	.	16a\JJ	.	.	.	.	.	.	.
!LO:LB:g=original	!	!	!	!	!	!	!	!	!	!	!
=82	=82	=82	=82	=82	=82	=82	=82	=82	=82	=82	=82
!LO:N:vis=0	!	!	!	!	!	!LO:TX:a:t=2	!	!	!	!	!
!	!	!LO:N:vis=0	!	!LO:N:vis=0	!	!LO:N:vis=0	!	!	!	!	!
2.r	.	2.r	.	2.r	.	2.r	.	.	8dd\L	8ff#\L	8aa\L
.	.	.	.	.	.	.	.	.	8dd\	8ff#\	8aa\
.	.	.	.	.	.	.	.	.	8dd\J	8ff#\J	8aa\J
=83	=83	=83	=83	=83	=83	=83	=83	=83	=83	=83	=83
.	.	.	.	.	.	.	.	.	8dd\L	8ff#\L	8aa\L
.	.	.	.	.	.	.	.	.	8dd\	8ff#\	8aa\
.	.	.	.	.	.	.	.	.	8dd\J	8ff#\J	8aa\J
=84	=84	=84	=84	=84	=84	=84	=84	=84	=84	=84	=84
!	!	!	!	!	!	!	!	!	!LO:N:vis=00	!LO:N:vis=00	!LO:N:vis=00
8d\L	.	8a/L	.	8ff#\L	.	8ff#\L	Dor-	.	1.r	1.r	1.r
8c#\	.	8a/	.	8ee\	.	8ee\J	.	.	.	.	.
8B\J	.	8f#/J	.	8dd\J	.	8dd\	-mi	.	.	.	.
=85	=85	=85	=85	=85	=85	=85	=85	=85	=85	=85	=85
8A\L	.	8e/L	.	8cc#\L	.	4cc#\	Dor-	.	.	.	.
8G\	.	8e/	.	8cc#\	.	.	.	.	.	.	.
8F#\J	.	8f#/J	.	8dd\J	.	8dd\	-mi	.	.	.	.
=86	=86	=86	=86	=86	=86	=86	=86	=86	=86	=86	=86
!LO:TX:t=P:problem:mixed beam	!	!	!	!	!	!	!	!	!	!	!
8G\L	.	16g/LL	.	16ee\LL	.	16ee\LL	mi	.	.	.	.
.	.	16b/	.	16gg\	.	16gg\JJ	.	.	.	.	.
8A\	.	16a/	.	16ff#\	.	16ff#\LL	Je-	.	.	.	.
.	.	16g/	.	16ee\	.	16ee\JJ	.	.	.	.	.
8AA/J	.	16f#/	.	16dd\	.	16dd\LL	-su-	.	.	.	.
.	.	16e/JJ	.	16cc#\JJ	.	16cc#\JJ	.	.	.	.	.
!	!	!	!	!	!	!LO:LB:g=original	!	!	!	!	!
=87	=87	=87	=87	=87	=87	=87	=87	=87	=87	=87	=87
!	!	!	!	!	!	!	!	!	!	!	!
8D\L	.	16f#/LL	.	16dd\LL	.	4.dd\	-le	.	.	.	.
.	.	16e/	.	16cc#\	.	.	.	.	.	.	.
8D\	.	16f#/	.	16dd\	.	.	.	.	.	.	.
.	.	16e/J	.	16cc#\J	.	.	.	.	.	.	.
8D\J	.	8f#/J	.	8dd\J	.	.	.	.	.	.	.
!	!	!	!	!	!	!	!	!	!	!LO:TX:t=P:problem:w źródle po tym takcie wykreślonych jest 6 taktów	!
=88	=88	=88	=88	=88	=88	=88	=88	=88	=88	=88	=88
8D\L	.	8f#/L	.	8a/L	.	16dd\LL	Dor-	.	8dd\L	8ff#\L	8aa\L
.	.	.	.	.	.	16ff#\JJ	.	.	.	.	.
8D\	.	8f#/	.	8a/	.	8aa\	-mi	.	8dd\	8ff#\	8aa\
8D\J	.	8f#/J	.	8a/J	.	16aa\LL	pu-	.	8dd\J	8ff#\J	8aa\J
.	.	.	.	.	.	16gg\JJ	.	.	.	.	.
=89	=89	=89	=89	=89	=89	=89	=89	=89	=89	=89	=89
.	.	.	.	.	.	8qqgg/	.	.	.	.	.
!	!	!	!	!	!	!	!LO:SIC:s=-ellu-	!	!	!	!
8D\L	.	8f#/L	.	8a/L	.	4ff#\	-el[[le]]-	.	8dd\L	8ff#\L	8aa\L
8D\	.	8f#/	.	8a/	.	.	.	.	8dd\	8ff#\	8aa\
8D\J	.	8f#/J	.	8a/J	.	8ee\	-le	.	8dd\J	8ff#\J	8aa\J
!	!	!LO:LB:g=original	!	!	!	!	!	!	!	!	!
=90	=90	=90	=90	=90	=90	=90	=90	=90	=90	=90	=90
8D\L	.	8f#/L	.	8a/L	.	16dd\LL	Dor-	.	8dd\L	8ff#\L	8aa\L
.	.	.	.	.	.	16ff#\JJ	.	.	.	.	.
8D\	.	8f#/	.	8a/	.	8aa\	-mi	.	8dd\	8ff#\	8aa\
8D\J	.	8f#/J	.	8a/J	.	16aa\LL	te-	.	8dd\J	8ff#\J	8aa\J
.	.	.	.	.	.	16gg\JJ	.	.	.	.	.
=91	=91	=91	=91	=91	=91	=91	=91	=91	=91	=91	=91
.	.	.	.	.	.	8qqgg/	.	.	.	.	.
8D\L	.	8f#/L	.	8a/L	.	4ff#\	-nel-	.	8dd\L	8ff#\L	8aa\L
8D\	.	8f#/	.	8a/	.	.	.	.	8dd\	8ff#\	8aa\
8D\J	.	8f#/J	.	8a/J	.	8ee\	-le	.	8dd\J	8ff#\J	8aa\J
!	!	!	!	!LO:LB:g=original	!	!	!	!	!	!LO:LB:g=original	!LO:LB:g=original
=92	=92	=92	=92	=92	=92	=92	=92	=92	=92	=92	=92
8D\L	.	8f#/L	.	8a/L	.	16ff#\LL	Dor-	.	8dd\L	8ff#\L	8aa\L
.	.	.	.	.	.	16ee\	.	.	.	.	.
8D\	.	8f#/	.	8a/	.	16ff#\	.	.	8dd\	8ff#\	8aa\
.	.	.	.	.	.	16aa\JJ	.	.	.	.	.
8D\J	.	8f#/J	.	8a/J	.	16ee\LL	-mi	.	8dd\J	8ff#\J	8aa\J
.	.	.	.	.	.	16gg\JJ	.	.	.	.	.
!	!	!	!	!	!	!	!	!	!LO:LB:g=original	!	!
=93	=93	=93	=93	=93	=93	=93	=93	=93	=93	=93	=93
8D\L	.	8f#/L	.	8a/L	.	16ff#\LL	Je-	.	8dd\L	8ff#\L	8aa\L
.	.	.	.	.	.	16ee\JJ	.	.	.	.	.
8D\	.	8f#/	.	8a/	.	16ff#\LL	.	.	8dd\	8ff#\	8aa\
.	.	.	.	.	.	16aa\JJ	.	.	.	.	.
8D\J	.	8f#/J	.	8a/J	.	16ee\LL	.	.	8dd\J	8ff#\J	8aa\J
.	.	.	.	.	.	16gg\JJ	.	.	.	.	.
!	!	!	!	!	!	!LO:LB:g=original	!	!	!	!	!
=94	=94	=94	=94	=94	=94	=94	=94	=94	=94	=94	=94
8D\L	.	8f#/L	.	8a/L	.	16ff#\LL	.	.	8dd\L	8ff#\L	8aa\L
.	.	.	.	.	.	16aa\	.	.	.	.	.
8D\	.	8f#/	.	8a/	.	16ff#\	.	.	8dd\	8ff#\	8aa\
.	.	.	.	.	.	16dd\	.	.	.	.	.
8AA\J	.	8f#/J	.	8a/J	.	16ee\	.	.	8dd\J	8ff#\J	8aa\J
.	.	.	.	.	.	16cc#\JJ	-ſu-	.	.	.	.
=95	=95	=95	=95	=95	=95	=95	=95	=95	=95	=95	=95
!	!LO:DY:a:t=for&colon;	!	!LO:DY:a:t=for&colon;	!	!LO:DY:a:t=for&colon;	!	!	!	!	!	!
8D\L	f	8a\L	f	8a\L	f	4.dd\	-le.	.	4dd\	4ff#\	4aa\
8F#\	.	8dd\L	.	16dd\L	.	.	.	.	.	.	.
.	.	.	.	16ee\J	.	.	.	.	.	.	.
8G\J	.	16ee\J	.	8ff#\J	.	.	.	.	8r	8r	8r
.	.	16ff#\J	.	.	.	.	.	.	.	.	.
!LO:LB:g=original	!	!	!	!	!	!	!	!	!	!	!
=96	=96	=96	=96	=96	=96	=96	=96	=96	=96	=96	=96
!	!	!	!	!	!	!LO:TX:a:t=31.	!	!	!	!	!
.	.	8qqdd/	.	8qqdd/	.	.	.	.	.	.	.
!	!	!	!	!	!	!LO:N:vis=00	!	!	!LO:N:vis=0	!LO:N:vis=0	!LO:N:vis=0
8A\L	.	8cc#\L	.	8cc#\L	.	1.r	.	.	2.r	2.r	2.r
8G\	.	16b\L	.	16b\L	.	.	.	.	.	.	.
.	.	16a\J	.	16a\J	.	.	.	.	.	.	.
8F#\J	.	8dd\J	.	8dd\J	.	.	.	.	.	.	.
=97	=97	=97	=97	=97	=97	=97	=97	=97	=97	=97	=97
8A\L	.	16ee\LL	.	16ee\LL	.	.	.	.	.	.	.
.	.	16dd\	.	16dd\	.	.	.	.	.	.	.
8c#\	.	16cc#\	.	16cc#\	.	.	.	.	.	.	.
.	.	16b\	.	16b\	.	.	.	.	.	.	.
8A\J	.	16a\	.	16a\	.	.	.	.	.	.	.
.	.	16gg\JJ	.	16gg\JJ	.	.	.	.	.	.	.
=98	=98	=98	=98	=98	=98	=98	=98	=98	=98	=98	=98
8d\L	.	8ff#\L	.	8ff#\L	.	.	.	.	4.r	4.r	4.r
8A\	.	16ee\L	.	16ee\L	.	.	.	.	.	.	.
.	.	16ff#\J	.	16ff#\J	.	.	.	.	.	.	.
8F#\J	.	8dd\J	.	8dd\J	.	.	.	.	.	.	.
=99	=99	=99	=99	=99	=99	=99	=99	=99	=99	=99	=99
4.r	.	4.r	.	4.r	.	.	.	.	8dd\L	8ff#\L	8aa\L
.	.	.	.	.	.	.	.	.	8dd\	8ff#\	8aa\
.	.	.	.	.	.	.	.	.	8dd\J	8ff#\J	8aa\J
=100	=100	=100	=100	=100	=100	=100	=100	=100	=100	=100	=100
!	!	!	!	!	!	!LO:N:vis=00	!	!	!	!	!
8A\L	.	16ee\LL	.	16ee\LL	.	1.r	.	.	4.r	4.r	4.r
.	.	16dd\	.	16dd\	.	.	.	.	.	.	.
8B\	.	16cc#\	.	16cc#\	.	.	.	.	.	.	.
.	.	16b\J	.	16b\J	.	.	.	.	.	.	.
8c#\J	.	8a\J	.	8a\J	.	.	.	.	.	.	.
=101	=101	=101	=101	=101	=101	=101	=101	=101	=101	=101	=101
4.r	.	4.r	.	4.r	.	.	.	.	8dd\L	8ff#\L	8aa\L
.	.	.	.	.	.	.	.	.	8dd\	8ff#\	8aa\
.	.	.	.	.	.	.	.	.	8dd\J	8ff#\J	8aa\J
=102	=102	=102	=102	=102	=102	=102	=102	=102	=102	=102	=102
!	!	!	!	!	!	!	!	!	!LO:N:vis=00	!LO:N:vis=00	!LO:N:vis=00
8A\L	.	16ee\LL	.	16ee\LL	.	.	.	.	1.r	1.r	1.r
.	.	16dd\	.	16dd\	.	.	.	.	.	.	.
8B\	.	16cc#\	.	16cc#\	.	.	.	.	.	.	.
.	.	16b\J	.	16b\J	.	.	.	.	.	.	.
8c#\J	.	8a\J	.	8a\J	.	.	.	.	.	.	.
!	!	!LO:LB:g=original	!	!	!	!	!	!	!	!	!
=103	=103	=103	=103	=103	=103	=103	=103	=103	=103	=103	=103
!LO:TX:t=P:problem:mixed beam	!	!	!	!	!	!	!	!	!	!	!
8D\L	.	8dd\L	.	8dd\L	.	.	.	.	.	.	.
8E\	.	16b\L	.	16b\L	.	.	.	.	.	.	.
.	.	16dd\	.	16dd\	.	.	.	.	.	.	.
8EE/J	.	16cc#\	.	16cc#\	.	.	.	.	.	.	.
.	.	16g#X\JJ	.	16g#X\JJ	.	.	.	.	.	.	.
!	!	!	!	!LO:LB:g=original	!	!	!	!	!	!	!
=104	=104	=104	=104	=104	=104	=104	=104	=104	=104	=104	=104
!	!	!	!	!	!	!LO:N:vis=00	!	!	!	!	!
8AA/L	.	8a\L	.	8a\L	.	1.r	.	.	.	.	.
8AA/	.	16cc#\L	.	16cc#\L	.	.	.	.	.	.	.
.	.	16a\	.	16a\	.	.	.	.	.	.	.
8AA/J	.	16cc#\	.	16cc#\	.	.	.	.	.	.	.
.	.	16ee\JJ	.	16ee\JJ	.	.	.	.	.	.	.
=105	=105	=105	=105	=105	=105	=105	=105	=105	=105	=105	=105
!LO:TX:t=P:problem:mixed beam	!	!	!	!	!	!	!	!	!	!	!
8D\L	.	8dd\L	.	8dd\L	.	.	.	.	.	.	.
8E\	.	16b\L	.	16b\L	.	.	.	.	.	.	.
.	.	16dd\	.	16dd\	.	.	.	.	.	.	.
8EE/J	.	16cc#\	.	16cc#\	.	.	.	.	.	.	.
.	.	16g#X\JJ	.	16g#X\JJ	.	.	.	.	.	.	.
=106	=106	=106	=106	=106	=106	=106	=106	=106	=106	=106	=106
!LO:TX:t=P:problem:mixed beam	!	!	!	!	!	!	!	!	!	!	!
8AA/L	.	4a/	.	4a/	.	.	.	.	4.r	4.r	4.r
8A\	.	.	.	.	.	.	.	.	.	.	.
8AA/J	.	8A/	.	8A/	.	.	.	.	.	.	.
=107	=107	=107	=107	=107	=107	=107	=107	=107	=107	=107	=107
*	*	*^	*	*	*	*	*	*	*	*	*
!	!	!	!	!LO:DY:a:t=pi&colon;	!	!LO:DY:a:t=pia&colon;	!	!	!	!	!	!
8D\L	.	8a/L	8f#\L	p	16dd\LL	p	.	.	.	8dd\L	8ff#\L	8aa\L
.	.	.	.	.	16ff#\J	.	.	.	.	.	.	.
8D\	.	8a/	8f#\	.	8aa\J	.	.	.	.	8dd\	8ff#\	8aa\
8D\J	.	8a/J	8f#\J	.	16aa\LL	.	.	.	.	8dd\J	8ff#\J	8aa\J
.	.	.	.	.	16gg\JJ	.	.	.	.	.	.	.
=108	=108	=108	=108	=108	=108	=108	=108	=108	=108	=108	=108	=108
.	.	.	.	.	8qqgg/	.	.	.	.	.	.	.
!	!	!	!	!	!	!	!LO:N:vis=00	!	!	!	!	!
8D\L	.	8a/L	8f#\L	.	4ff#\	.	1.r	.	.	8dd\L	8ff#\L	8aa\L
8D\	.	8a/	8f#\	.	.	.	.	.	.	8dd\	8ff#\	8aa\
8D\J	.	8a/J	8f#\J	.	8ee\	.	.	.	.	8dd\J	8ff#\J	8aa\J
!LO:LB:g=original	!	!	!	!	!	!	!	!	!	!	!	!
=109	=109	=109	=109	=109	=109	=109	=109	=109	=109	=109	=109	=109
8D\L	.	8a/L	8f#\L	.	16dd\L	.	.	.	.	8dd\L	8ff#\L	8aa\L
.	.	.	.	.	16ff#\	.	.	.	.	.	.	.
8D\	.	8a/	8f#\	.	8aa\J	.	.	.	.	8dd\	8ff#\	8aa\
8D\J	.	8a/J	8f#\J	.	16aa\L	.	.	.	.	8dd\J	8ff#\J	8aa\J
.	.	.	.	.	16gg\J	.	.	.	.	.	.	.
=110	=110	=110	=110	=110	=110	=110	=110	=110	=110	=110	=110	=110
.	.	.	.	.	8qqgg/	.	.	.	.	.	.	.
8D\L	.	8a/L	8f#\L	.	4ff#\	.	.	.	.	8dd\L	8ff#\L	8aa\L
8D\	.	8a/	8f#\	.	.	.	.	.	.	8dd\	8ff#\	8aa\
8D\J	.	8a/J	8f#\J	.	8ee\	.	.	.	.	8dd\J	8ff#\J	8aa\J
=111	=111	=111	=111	=111	=111	=111	=111	=111	=111	=111	=111	=111
8D\L	.	8a/L	8f#\L	.	16ff#\LL	.	.	.	.	8dd\L	8ff#\L	8aa\L
.	.	.	.	.	16ee\	.	.	.	.	.	.	.
8D\	.	8a/	8f#\	.	16ff#\	.	.	.	.	8dd\	8ff#\	8aa\
.	.	.	.	.	16aa\	.	.	.	.	.	.	.
8AA\J	.	8a/J	8f#\J	.	16ee\	.	.	.	.	8dd\J	8ff#\J	8aa\J
.	.	.	.	.	16gg\JJ	.	.	.	.	.	.	.
=112	=112	=112	=112	=112	=112	=112	=112	=112	=112	=112	=112	=112
!	!	!	!	!	!	!	!LO:N:vis=00	!	!	!	!	!
8D\L	.	8a/L	8f#\L	.	16ff#\LL	.	1.r	.	.	8dd\L	8ff#\L	8aa\L
.	.	.	.	.	16ee\	.	.	.	.	.	.	.
8D\	.	8a/	8f#\	.	16ff#\	.	.	.	.	8dd\	8ff#\	8aa\
.	.	.	.	.	16aa\	.	.	.	.	.	.	.
8AA\J	.	8a/J	8f#\J	.	16ee\	.	.	.	.	8dd\J	8ff#\J	8aa\J
.	.	.	.	.	16gg\JJ	.	.	.	.	.	.	.
!	!	!	!	!	!	!	!	!	!	!LO:LB:g=original	!LO:LB:g=original	!LO:LB:g=original
=113	=113	=113	=113	=113	=113	=113	=113	=113	=113	=113	=113	=113
8D\L	.	8a/L	8f#\L	.	16ff#\LL	.	.	.	.	8dd\L	8ff#\L	8aa\L
.	.	.	.	.	16aa\	.	.	.	.	.	.	.
8D\	.	8a/	8f#\	.	16ff#\	.	.	.	.	8dd\	8ff#\	8aa\
.	.	.	.	.	16dd\	.	.	.	.	.	.	.
8A\J	.	8a/J	8f#\J	.	16ee\	.	.	.	.	8dd\J	8ff#\J	8aa\J
.	.	.	.	.	16cc#\JJ	.	.	.	.	.	.	.
!	!	!	!	!	!LO:LB:g=original	!	!	!	!	!	!	!
=114	=114	=114	=114	=114	=114	=114	=114	=114	=114	=114	=114	=114
8D\L	.	8a/L	8f#\L	.	4dd\	.	.	.	.	8dd\L	8ff#\L	8aa\L
8AA\	.	8a/	8f#\	.	.	.	.	.	.	8dd\	8ff#\	8aa\
8D\J	.	8a/J	8f#\J	.	8d/	.	.	.	.	8dd\J	8ff#\J	8aa\J
*	*	*v	*v	*	*	*	*	*	*	*	*	*
!	!	!LO:LB:g=original	!	!	!	!	!	!	!	!	!
=115	=115	=115	=115	=115	=115	=115	=115	=115	=115	=115	=115
!LO:TX:t=P:problem:mixed beam	!	!	!LO:DY:a:t=for&colon;	!	!LO:DY:a:t=for&colon;	!	!	!	!LO:N:vis=00	!LO:N:vis=00	!LO:N:vis=00
8D\L	.	8dd\L	f	8dd\L	f	.	.	.	1.r	1.r	1.r
8E\	.	16b\L	.	16b\L	.	.	.	.	.	.	.
.	.	16dd\	.	16dd\	.	.	.	.	.	.	.
8EE/J	.	16cc#\	.	16cc#\	.	.	.	.	.	.	.
.	.	16g#X\JJ	.	16g#X\JJ	.	.	.	.	.	.	.
=116	=116	=116	=116	=116	=116	=116	=116	=116	=116	=116	=116
!	!	!	!	!	!	!LO:N:vis=00	!	!	!	!	!
8AA/L	.	8a\L	.	8a\L	.	1.r	.	.	.	.	.
8AA/	.	16cc#\L	.	16cc#\L	.	.	.	.	.	.	.
.	.	16a\	.	16a\	.	.	.	.	.	.	.
8AA/J	.	16cc#\	.	16cc#\	.	.	.	.	.	.	.
.	.	16ee\JJ	.	16ee\JJ	.	.	.	.	.	.	.
=117	=117	=117	=117	=117	=117	=117	=117	=117	=117	=117	=117
!LO:TX:t=P:problem:mixed beam	!	!	!	!	!	!	!	!	!	!	!
8D\L	.	8dd\L	.	8dd\L	.	.	.	.	.	.	.
8E\	.	16b\L	.	16b\L	.	.	.	.	.	.	.
.	.	16dd\	.	16dd\	.	.	.	.	.	.	.
8EE/J	.	16cc#\	.	16cc#\	.	.	.	.	.	.	.
.	.	16g#X\JJ	.	16g#X\JJ	.	.	.	.	.	.	.
=118	=118	=118	=118	=118	=118	=118	=118	=118	=118	=118	=118
!LO:TX:t=P:problem:mixed beam	!	!	!	!	!	!	!	!	!	!	!
8AA/L	.	4a/	.	4a/	.	.	.	.	.	.	.
8A\	.	.	.	.	.	.	.	.	.	.	.
8AA/J	.	8A/	.	8A/	.	.	.	.	.	.	.
=119	=119	=119	=119	=119	=119	=119	=119	=119	=119	=119	=119
!	!	!	!LO:DY:a:t=pi	!	!LO:DY:a:t=pia&colon;	!	!	!	!	!	!
8D\L	.	8a/L	p	16dd\LL	p	.	.	.	8dd\L	8ff#\L	8aa\L
.	.	.	.	16ff#\J	.	.	.	.	.	.	.
8D\	.	8a/	.	8aa\J	.	.	.	.	8dd\	8ff#\	8aa\
8D\J	.	8a/J	.	16aa\LL	.	.	.	.	8dd\J	8ff#\J	8aa\J
.	.	.	.	16gg\JJ	.	.	.	.	.	.	.
=120	=120	=120	=120	=120	=120	=120	=120	=120	=120	=120	=120
.	.	.	.	8qqgg/	.	.	.	.	.	.	.
!	!	!	!	!	!	!LO:N:vis=00	!	!	!	!	!
8D\L	.	8a/L	.	4ff#\	.	1.r	.	.	8dd\L	8ff#\L	8aa\L
8D\	.	8a/	.	.	.	.	.	.	8dd\	8ff#\	8aa\
8D\J	.	8a/J	.	8ee\	.	.	.	.	8dd\J	8ff#\J	8aa\J
!LO:LB:g=original	!	!	!	!	!	!	!	!	!	!	!
=121	=121	=121	=121	=121	=121	=121	=121	=121	=121	=121	=121
8D\L	.	8a/L	.	16dd\LL	.	.	.	.	8dd\L	8ff#\L	8aa\L
.	.	.	.	16ff#\J	.	.	.	.	.	.	.
8D\	.	8a/	.	8aa\J	.	.	.	.	8dd\	8ff#\	8aa\
8D\J	.	8a/J	.	16aa\LL	.	.	.	.	8dd\J	8ff#\J	8aa\J
.	.	.	.	16gg\JJ	.	.	.	.	.	.	.
=122	=122	=122	=122	=122	=122	=122	=122	=122	=122	=122	=122
.	.	.	.	8qqgg/	.	.	.	.	.	.	.
8D\L	.	8a/L	.	4ff#\	.	.	.	.	8dd\L	8ff#\L	8aa\L
8D\	.	8a/	.	.	.	.	.	.	8dd\	8ff#\	8aa\
8D\J	.	8a/J	.	8ee\	.	.	.	.	8dd\J	8ff#\J	8aa\J
=123	=123	=123	=123	=123	=123	=123	=123	=123	=123	=123	=123
8D\L	.	8a/L	.	16ff#\LL	.	.	.	.	8dd\L	8ff#\L	8aa\L
.	.	.	.	16ee\	.	.	.	.	.	.	.
8D\	.	8a/	.	16ff#\	.	.	.	.	8dd\	8ff#\	8aa\
.	.	.	.	16aa\	.	.	.	.	.	.	.
8AA\J	.	8a/J	.	16ee\	.	.	.	.	8dd\J	8ff#\J	8aa\J
.	.	.	.	16gg\JJ	.	.	.	.	.	.	.
!	!	!	!	!LO:LB:g=original	!	!	!	!	!	!	!
=124	=124	=124	=124	=124	=124	=124	=124	=124	=124	=124	=124
!	!	!	!	!	!	!LO:N:vis=0	!	!	!	!	!
8D\L	.	8a/L	.	16ff#\LL	.	2.r	.	.	8dd\L	8ff#\L	8aa\L
.	.	.	.	16ee\	.	.	.	.	.	.	.
8D\	.	8a/	.	16ff#\	.	.	.	.	8dd\	8ff#\	8aa\
.	.	.	.	16aa\	.	.	.	.	.	.	.
8AA\J	.	8a/J	.	16ee\	.	.	.	.	8dd\J	8ff#\J	8aa\J
.	.	.	.	16gg\JJ	.	.	.	.	.	.	.
=125	=125	=125	=125	=125	=125	=125	=125	=125	=125	=125	=125
8D\L	.	8a/L	.	16ff#\LL	.	.	.	.	8dd\L	8ff#\L	8aa\L
.	.	.	.	16aa\	.	.	.	.	.	.	.
8D\	.	8a/	.	16ff#\	.	.	.	.	8dd\	8ff#\	8aa\
.	.	.	.	16dd\	.	.	.	.	.	.	.
8A\J	.	8a/J	.	16ee\	.	.	.	.	8dd\J	8ff#\J	8aa\J
.	.	.	.	16cc#\JJ	.	.	.	.	.	.	.
=126	=126	=126	=126	=126	=126	=126	=126	=126	=126	=126	=126
!LO:TX:t=P:problem:w źródle fermata zarówno pod i nad nutą	!	!	!	!	!	!LO:TX:t=P:problem:w źródle fermata zarówno pod i nad nutą	!	!	!	!	!
4.D;>;<\	.	8a/L	.	4dd\	.	4.r;>;<	.	.	8dd\L	8ff#\L	8aa\L
.	.	8a/	.	.	.	.	.	.	8dd\	8ff#\	8aa\
!	!	!LO:TX:t=P:problem:w źródle fermata zarówno pod i nad nutą	!	!LO:TX:t=P:problem:w źródle fermata zarówno pod i nad nutą	!	!	!	!	!LO:TX:t=P:problem:w źródle fermata zarówno pod i nad nutą	!LO:TX:t=P:problem:w źródle fermata zarówno pod i nad nutą	!LO:TX:t=P:problem:w źródle fermata zarówno pod i nad nutą
.	.	8a;>;</J	.	8d;>;</	.	.	.	.	8dd;>;<\J	8ff#;>;<\J	8aa;>;<\J
!	!	!LO:LB:g=original	!	!	!	!	!	!	!	!	!
=127||	=127||	=127||	=127||	=127||	=127||	=127||	=127||	=127||	=127||	=127||	=127||
!LO:TX:t=P:problem:mixed beam	!LO:DY:a:t=pia&colon;	!	!LO:DY:a:t=pi&colon;	!	!	!	!	!	!	!	!LO:TX:a:t=19.
!	!	!	!	!	!	!	!	!	!LO:N:vis=00	!LO:N:vis=00	!LO:N:vis=00
8BB/L	p	8f#/L	p	8ff#\L	.	8ff#\	Ti-	.	1.r	1.r	1.r
8B\	.	8f#/	.	8b\	.	8b\	-bi	.	.	.	.
!LO:TX:a:t=c	!	!	!	!	!	!	!	!	!	!	!
8A#X\J	.	8f#/J	.	8cc#\J	.	8cc#\	mu-	.	.	.	.
=128	=128	=128	=128	=128	=128	=128	=128	=128	=128	=128	=128
!LO:TX:t=P:problem:mixed beam	!	!	!	!	!	!	!	!	!	!	!
8B\L	.	8f#/L	.	8dd\L	.	8dd\	-nuſ-	.	.	.	.
8BB/	.	8b/	.	8dd\	.	16ee\LL	-cu-	.	.	.	.
.	.	.	.	.	.	16dd\JJ	.	.	.	.	.
8F#\J	.	8a#X/J	.	8cc#\J	.	8cc#\	-la	.	.	.	.
=129	=129	=129	=129	=129	=129	=129	=129	=129	=129	=129	=129
8B\L	.	8b\L	.	8dd\L	.	8dd\L	da-	.	.	.	.
8E\	.	8a#X\	.	8dd\	.	16ee\L	.	.	.	.	.
.	.	.	.	.	.	16dd\	.	.	.	.	.
8F#\J	.	8a#\J	.	8cc#\J	.	16cc#\	.	.	.	.	.
.	.	.	.	.	.	16dd\JJ	.	.	.	.	.
=130	=130	=130	=130	=130	=130	=130	=130	=130	=130	=130	=130
!LO:TX:t=P:problem:mixed beam	!	!	!	!	!	!	!	!	!	!	!
8B\L	.	8b\L	.	8dd\L	.	4.b\	-muſ	.	.	.	.
8F#\	.	8b\	.	8dd\	.	.	.	.	.	.	.
8BB/J	.	8b\J	.	8dd\J	.	.	.	.	.	.	.
=131	=131	=131	=131	=131	=131	=131	=131	=131	=131	=131	=131
!LO:TX:t=P:problem:mixed beam	!	!	!	!	!	!	!	!	!LO:N:vis=00	!LO:N:vis=00	!LO:N:vis=00
8AA/L	.	8e/L	.	8ee\L	.	8ee\	ti-	.	1.r	1.r	1.r
8A\	.	8e/	.	8a\	.	8a\	-bi	.	.	.	.
8G#X\J	.	8e/J	.	8b\J	.	8b\	cor-	.	.	.	.
!	!	!	!	!	!	!LO:LB:g=original	!	!	!	!	!
=132	=132	=132	=132	=132	=132	=132	=132	=132	=132	=132	=132
!LO:TX:t=P:problem:mixed beam	!	!	!	!	!	!	!	!	!	!	!
8A\L	.	8e/L	.	8cc#\L	.	8cc#\	-da	.	.	.	.
8AA/	.	8a/	.	8cc#\	.	16dd\LL	co-	.	.	.	.
.	.	.	.	.	.	16cc#\JJ	.	.	.	.	.
8E\J	.	8g#X/J	.	8b\J	.	8b\	-mo-	.	.	.	.
!LO:LB:g=original	!	!	!	!	!	!	!	!	!	!	!
=133	=133	=133	=133	=133	=133	=133	=133	=133	=133	=133	=133
8A\L	.	8a\L	.	8cc#\L	.	8cc#\	-da-	.	.	.	.
8D\	.	8cc#\	.	8ee\	.	16dd\LL	.	.	.	.	.
.	.	.	.	.	.	16cc#\JJ	.	.	.	.	.
8F#\J	.	8cc#\J	.	8aa\J	.	16b\LL	.	.	.	.	.
.	.	.	.	.	.	16a\JJ	.	.	.	.	.
=134	=134	=134	=134	=134	=134	=134	=134	=134	=134	=134	=134
8E\L	.	8b\L	.	8gg#X\L	.	16g#X/LL	.	.	.	.	.
.	.	.	.	.	.	16f#/JJ	.	.	.	.	.
8E\	.	8b\	.	8gg#\	.	4e/	-muſ	.	.	.	.
8E\J	.	8b\J	.	8gg#\J	.	.	.	.	.	.	.
!	!	!	!	!LO:LB:g=original	!	!	!	!	!	!	!
=135	=135	=135	=135	=135	=135	=135	=135	=135	=135	=135	=135
!	!	!	!	!	!	!	!	!	!LO:N:vis=00	!LO:N:vis=00	!LO:N:vis=00
8r	.	8r	.	4b\	.	4b\	mu-	.	1.r	1.r	1.r
8E#X\L	.	8g#/L	.	.	.	.	.	.	.	.	.
8C#\J	.	8e#X/J	.	16cc#\LL	.	16cc#\LL	.	.	.	.	.
.	.	.	.	16dd\JJ	.	16dd\JJ	.	.	.	.	.
=136	=136	=136	=136	=136	=136	=136	=136	=136	=136	=136	=136
8F#\L	.	8a\L	.	8cc#\L	.	8cc#\	-nuſ-	.	.	.	.
8G#X\	.	8b\	.	8b\	.	8b\	-cu-	.	.	.	.
8A\J	.	8cc#\J	.	8a\J	.	8a\	-la	.	.	.	.
=137	=137	=137	=137	=137	=137	=137	=137	=137	=137	=137	=137
!LO:TX:t=P:problem:mixed beam	!	!	!	!	!	!	!	!	!	!	!
8B\L	.	8g#X/L	.	16g#X/LL	.	16g#X\LL	Da-	.	.	.	.
.	.	.	.	16b/	.	16b\JJ	.	.	.	.	.
8c#\	.	8g#/	.	16a/	.	16a\LL	.	.	.	.	.
.	.	.	.	16g#/	.	16g#X\JJ	.	.	.	.	.
8C#/J	.	8g#/J	.	16f#/	.	16f#\LL	.	.	.	.	.
.	.	.	.	16e#X/JJ	.	16e#X\JJ	.	.	.	.	.
!	!	!LO:LB:g=original	!	!	!	!	!	!	!	!	!
=138	=138	=138	=138	=138	=138	=138	=138	=138	=138	=138	=138
!	!	!	!	!LO:TX:t=P:problem:mixed beam	!	!	!	!	!	!	!
8F#\L	.	8a\L	.	16f#/LL	.	4.f#/	-muſ	.	.	.	.
.	.	.	.	16cc#\	.	.	.	.	.	.	.
8A\	.	8cc#\	.	16ff#\	.	.	.	.	.	.	.
.	.	.	.	16ee#X\J	.	.	.	.	.	.	.
8F#\J	.	8a\J	.	8ff#\J	.	.	.	.	.	.	.
!	!	!	!	!	!	!LO:LB:g=original	!	!	!	!	!
=139	=139	=139	=139	=139	=139	=139	=139	=139	=139	=139	=139
!	!	!	!	!	!	!	!	!	!LO:N:vis=00	!LO:N:vis=00	!LO:N:vis=00
8r	.	8r	.	4.dd\	.	4.dd\	cor-	.	1.r	1.r	1.r
8B\L	.	8f#/L	.	.	.	.	.	.	.	.	.
8E#X\J	.	8g#X/J	.	.	.	.	.	.	.	.	.
=140	=140	=140	=140	=140	=140	=140	=140	=140	=140	=140	=140
8F#\L	.	4a/	.	4cc#\	.	8cc#\	-da	.	.	.	.
8A\	.	.	.	.	.	8ff#\	co-	.	.	.	.
8E#X\J	.	8g#X/	.	8b\	.	8b\	-mo-	.	.	.	.
=141	=141	=141	=141	=141	=141	=141	=141	=141	=141	=141	=141
!LO:TX:t=P:problem:mixed beam	!	!	!	!	!	!	!	!	!	!	!
8F#\L	.	8f#/L	.	8a\L	.	24a\LL	-da-	.	.	.	.
.	.	.	.	.	.	24g#X\	.	.	.	.	.
.	.	.	.	.	.	24f#\JJ	.	.	.	.	.
8c#\	.	8e#X/	.	8g#X\	.	4g#\	.	.	.	.	.
8C#/J	.	8e#/J	.	8g#\J	.	.	.	.	.	.	.
=142	=142	=142	=142	=142	=142	=142	=142	=142	=142	=142	=142
8F#\L	.	8f#/L	.	8a\	.	8f#\	-muſ	.	.	.	.
8B\	.	8f#/	.	4dd\	.	4dd\	cor-	.	.	.	.
8E#X\J	.	8g/J	.	.	.	.	.	.	.	.	.
=143	=143	=143	=143	=143	=143	=143	=143	=143	=143	=143	=143
!	!	!	!	!	!	!	!	!	!LO:N:vis=0	!LO:N:vis=0	!LO:N:vis=0
8F#\L	.	8a/L	.	8cc#\L	.	8cc#\	-da	.	2.r	2.r	2.r
8G#X\	.	8e#X/	.	8b\	.	8ee#X\	co-	.	.	.	.
8A\J	.	8f#/J	.	8a\J	.	8ff#\	-mo-	.	.	.	.
!LO:LB:g=original	!	!	!	!	!	!	!	!	!	!	!
=144	=144	=144	=144	=144	=144	=144	=144	=144	=144	=144	=144
8BB/	.	8B/	.	8B/	.	16ff#\LL	-da-	.	.	.	.
.	.	.	.	.	.	16b\JJ	.	.	.	.	.
4C#;>/	.	4c#;>/	.	4c#;</	.	8a\L	.	.	.	.	.
!	!	!	!	!	!	!LO:SIC:s=8g#	!	!	!	!	!
.	.	.	.	.	.	8g\J	.	.	.	.	.
!	!	!	!	!LO:LB:g=original	!	!	!	!	!	!	!
=145	=145	=145	=145	=145	=145	=145	=145	=145	=145	=145	=145
!LO:TX:i:b:t=Da capo.	!	!LO:TX:i:b:t=Da capo.	!	!LO:TX:i:b:t=Da capo.	!	!	!	!	!LO:TX:i:b:t=Da capo.	!LO:TX:b:i:t=Da capo	!LO:TX:i:b:t=Da capo.
!LO:TX:b:t=P:problem:napis "Da capo." za kreką na pięciolinii	!	!LO:TX:b:t=P:problem:napis "Da capo." za kreką na pięciolinii	!	!LO:TX:b:t=P:problem:napis "Da capo." za kreką na pięciolinii	!	!	!	!	!	!	!LO:TX:b:t=P:problem:napis "Da capo." za kreką na pięciolinii
!	!	!	!	!	!	!	!	!	!	!LO:TX:t=P:problem:w źródle fermata zarówno pod i nad pauzą	!
4.F#\	.	4.f#/	.	4.f#/	.	4.f#/	-muſ.	.	4.r;>	4.r;>;<	4.r
==	==	==	==	==	==	==	==	==	==	==	==
*-	*-	*-	*-	*-	*-	*-	*-	*-	*-	*-	*-
!!!system-decoration: [g1]s4[g2]s7
!!!RDF**kern: > = above
!!!RDF**kern: < = below
!!!EED: Mateusz Mrugas
!!!EST: 2021-01-11
!!!AIN: 4 empty 2 violn 1 vox
!!!ENC: Andrzej Gręziak
!!!END: 2020-11-24
